chainIcons/colored/1337-min.svg

<?xml version="1.0" encoding="UTF-8"?><svg viewBox="0 0 256 288" xmlns="http://www.w3.org/2000/svg" xmlns:xlink="http://www.w3.org/1999/xlink" preserveAspectRatio="xMidYMid"><g><path d="M222.483533,215.609119 C225.482797,215.609119 226.518418,214.909739 227.944077,212.475359 C229.369736,210.040979 228.683806,206.086792 228.630007,205.010823 C228.495511,202.64369 227.701984,200.007566 227.594387,198.689503 C227.594387,197.882527 227.594387,192.731324 227.715434,190.619734 C229.517682,157.21089 243.854972,149.262168 247.997453,148.361044 C250.639465,147.582306 253.472773,147.773101 255.986525,148.899028 L255.986525,97.7904908 L255.986525,97.7904908 L255.986525,97.0642116 L255.986525,83.5069996 C255.986525,76.1231609 250.741175,67.0446707 244.339158,63.3325769 L139.620455,2.80930888 C133.164639,-0.929684124 122.633591,-0.929684124 116.285372,2.76896003 L11.6742659,63.2115304 C5.28569874,66.9101745 0.0403488453,75.9886647 0.0537984605,83.385953 L0.0537984605,96.5934751 C0.0484475619,96.6695226 0.0484475619,96.746071 0.0537984605,96.8221185 L0.0537984605,116.108867 C0.659031141,116.445107 1.26426382,116.794797 1.8694965,117.171386 C3.90038838,118.516348 5.90438104,119.256077 7.94872253,120.668286 C13.7741954,124.218153 19.1872446,128.404244 24.0882607,133.149529 C25.0431833,134.064103 28.2307421,138.072088 28.9839206,139.013561 C31.2988063,142.20358 33.900965,145.174903 36.7577981,147.890307 C38.3361007,149.329408 40.0733565,150.583842 41.9358999,151.6293 C45.0158618,153.229804 50.0998163,152.866665 52.695592,151.723447 C72.6279216,143.088795 85.1360637,147.419571 90.9059486,150.889571 C105.17599,159.456976 109.937154,171.440583 111.45696,185.993067 C111.656514,187.877963 111.719443,189.774827 111.645255,191.668804 C111.645255,195.125355 111.524209,200.680046 115.169054,201.60807 C120.400955,202.953031 121.665218,197.357992 122.445296,193.645898 C124.207196,185.239888 135.397275,179.725546 143.588091,183.962175 C149.236929,186.880741 151.550263,188.535044 157.131853,186.073764 C164.112204,182.993803 167.716701,175.152677 170.151081,170.983296 C172.556097,166.923663 176.038162,163.609184 180.211393,161.40717 C191.105581,154.615115 218.488998,156.377014 219.484269,186.557951 C219.484269,188.198804 219.484269,192.395084 219.484269,194.95051 C219.484269,197.828728 219.578416,200.639698 219.390122,203.612063 C219.269075,205.589156 218.919385,207.646947 218.731091,209.677839 C218.677292,209.677839 217.655121,215.58222 222.483533,215.609119 Z" fill="#E4A663"/><path d="M255.959625,148.952827 C255.219896,148.724183 253.067958,147.311974 247.997453,148.414842 C243.841522,149.315966 229.517682,157.264689 227.715434,190.673533 C227.607837,192.731324 227.540589,197.882527 227.594387,198.743302 C227.701984,200.088263 228.495511,202.697489 228.630007,205.064621 C228.630007,206.14059 229.450434,210.040979 227.944077,212.529157 C226.43772,215.017336 225.482797,215.676367 222.483533,215.662918 C217.655121,215.662918 218.677292,209.731637 218.677292,209.731637 C218.865587,207.727645 219.215277,205.696753 219.336323,203.665861 C219.524618,200.693496 219.430471,197.882527 219.430471,195.004309 C219.430471,192.448882 219.430471,188.279501 219.430471,186.611749 C218.435199,156.430813 191.051783,154.668913 180.157594,161.460969 C175.984363,163.662983 172.502299,166.977462 170.097282,171.037095 C167.662902,175.206475 164.058405,183.047601 157.078055,186.127563 C151.496465,188.588842 149.183131,186.93454 143.534293,184.015973 C135.343477,179.779345 124.153397,185.293687 122.391498,193.699696 C121.61142,197.41179 120.347156,202.99338 115.115256,201.661868 C111.47041,200.733845 111.591457,195.179154 111.591457,191.722603 C111.665644,189.828625 111.602715,187.931762 111.403162,186.046865 C109.883356,171.494382 105.122192,159.510775 90.8521501,150.94337 C85.0822652,147.473369 72.5741232,143.142593 52.6417936,151.777246 C49.9518705,152.920463 44.9217145,153.283603 41.8821015,151.683099 C40.0195581,150.637641 38.2823023,149.383206 36.7039997,147.944106 C33.8471665,145.228701 31.2450078,142.257378 28.9301221,139.06736 C28.1769437,138.125887 24.9893849,134.117901 24.0344622,133.203327 C19.1334462,128.458043 13.7203969,124.271951 7.89492407,120.722085 C5.85058258,119.377123 3.86003954,118.516348 1.81569804,117.225185 C1.21046536,116.848595 0.60523268,116.498905 0,116.162665 L0,204.351791 C0,211.74908 5.2453499,220.82757 11.6473667,224.526214 L116.36607,285.049482 C122.768087,288.761576 133.245337,288.761576 139.647354,285.049482 L244.379507,224.606912 C250.781523,220.908268 256.013424,211.829777 256,204.432489 L255.959625,148.952827 Z" fill="#5E464D"/><path d="M141.301656,134.131351 C134.065763,138.314181 122.216653,138.314181 114.98076,134.131351 L7.89492407,77.6429674 C9.10538943,78.8399831 116.487117,141.219298 116.487117,141.219298 C122.889133,144.931392 133.366383,144.931392 139.7684,141.219298 C139.7684,141.219298 247.002182,79.0282777 248.212647,77.831262 L141.301656,134.131351 Z" fill="#FFFFFF"/><path d="M114.805915,10.8656283 C122.055257,6.72314688 133.890918,6.72314688 141.140261,10.8790779 L154.11914,16.258924 C152.908674,15.0619082 139.620455,6.45415458 139.620455,6.45415458 C133.218438,2.75551042 122.754637,2.7420608 116.35262,6.45415458 C116.35262,6.45415458 95.1291277,18.9219478 93.932112,20.1055139 L114.805915,10.8656283 Z" fill="#FFFFFF"/></g></svg>

<svg xmlns="http://www.w3.org/2000/svg" preserveAspectRatio="xMidYMid" viewBox="0 0 256 288"><path fill="#E4A663" d="M222.484 215.61c2.999 0 4.034-.7 5.46-3.135 1.426-2.434.74-6.388.686-7.464-.134-2.367-.928-5.003-1.036-6.321 0-.807 0-5.959.121-8.07 1.803-33.41 16.14-41.358 20.282-42.259a11.553 11.553 0 0 1 7.99.538V83.507c0-7.384-5.246-16.462-11.648-20.174L139.62 2.809c-6.455-3.739-16.986-3.739-23.335-.04L11.675 63.212C5.284 66.91.04 75.989.053 83.386v13.207a1.63 1.63 0 0 0 0 .23v19.286c.605.336 1.21.686 1.815 1.062 2.031 1.345 4.035 2.085 6.08 3.497a92.103 92.103 0 0 1 16.14 12.482c.954.914 4.142 4.922 4.895 5.864a64.558 64.558 0 0 0 7.774 8.876 28.096 28.096 0 0 0 5.178 3.74c3.08 1.6 8.164 1.237 10.76.093 19.932-8.634 32.44-4.303 38.21-.833 14.27 8.567 19.031 20.55 20.551 35.103a39.3 39.3 0 0 1 .188 5.676c0 3.456-.12 9.011 3.524 9.94 5.232 1.344 6.496-4.251 7.276-7.963 1.762-8.406 12.952-13.92 21.143-9.684 5.649 2.919 7.962 4.573 13.544 2.112 6.98-3.08 10.585-10.921 13.02-15.09a25.554 25.554 0 0 1 10.06-9.577c10.894-6.792 38.277-5.03 39.272 25.151v8.393c0 2.878.094 5.689-.094 8.661-.12 1.977-.47 4.035-.659 6.066-.054 0-1.076 5.904 3.753 5.931"/><path fill="#5E464D" d="M255.96 148.953c-.74-.229-2.892-1.641-7.963-.538-4.155.901-18.48 8.85-20.282 42.259-.107 2.057-.174 7.209-.12 8.07.107 1.344.9 3.953 1.035 6.32 0 1.077.82 4.977-.686 7.465-1.506 2.488-2.461 3.147-5.46 3.134-4.829 0-3.807-5.931-3.807-5.931.189-2.004.538-4.035.66-6.066.188-2.973.093-5.783.093-8.662v-8.392c-.995-30.181-28.378-31.943-39.272-25.151a25.554 25.554 0 0 0-10.06 9.576c-2.435 4.17-6.04 12.01-13.02 15.09-5.582 2.462-7.895.808-13.544-2.111-8.19-4.237-19.38 1.278-21.143 9.684-.78 3.712-2.044 9.293-7.276 7.962-3.645-.928-3.524-6.483-3.524-9.94a39.3 39.3 0 0 0-.188-5.675c-1.52-14.553-6.28-26.536-20.55-35.104-5.77-3.47-18.279-7.8-38.211.834-2.69 1.143-7.72 1.507-10.76-.094a28.096 28.096 0 0 1-5.178-3.739 64.558 64.558 0 0 1-7.774-8.877c-.753-.941-3.94-4.95-4.896-5.864a92.103 92.103 0 0 0-16.14-12.48c-2.043-1.346-4.034-2.207-6.078-3.498A42.365 42.365 0 0 0 0 116.163v88.189c0 7.397 5.245 16.476 11.647 20.174l104.72 60.523c6.401 3.713 16.878 3.713 23.28 0l104.733-60.442c6.402-3.699 11.633-12.777 11.62-20.175z"/><path fill="#FFF" d="M141.302 134.131c-7.236 4.183-19.085 4.183-26.321 0L7.895 77.643c1.21 1.197 108.592 63.576 108.592 63.576 6.402 3.712 16.88 3.712 23.281 0 0 0 107.234-62.19 108.445-63.388zM114.806 10.866c7.25-4.143 19.085-4.143 26.334.013l12.98 5.38c-1.211-1.197-14.5-9.805-14.5-9.805-6.402-3.698-16.865-3.712-23.267 0 0 0-21.224 12.468-22.42 13.652z"/></svg>
